src/assets/outline/Teacher.svg

<svg width="24" height="24" viewBox="0 0 24 24"  xmlns="http://www.w3.org/2000/svg">
<path d="M12.0098 16.9998C11.1598 16.9998 10.2998 16.7798 9.62982 16.3498L3.60982 12.4198C2.48982 11.6898 1.81982 10.4598 1.81982 9.11979C1.81982 7.77979 2.48982 6.54979 3.60982 5.81979L9.63982 1.89979C10.9798 1.02979 13.0698 1.02979 14.3998 1.90979L20.3898 5.83979C21.4998 6.56979 22.1698 7.79979 22.1698 9.12979C22.1698 10.4598 21.4998 11.6898 20.3898 12.4198L14.3998 16.3498C13.7298 16.7898 12.8698 16.9998 12.0098 16.9998ZM12.0098 2.74979C11.4398 2.74979 10.8698 2.87979 10.4598 3.15979L4.43982 7.07979C3.73982 7.53979 3.32982 8.27979 3.32982 9.11979C3.32982 9.95979 3.72982 10.6998 4.43982 11.1598L10.4598 15.0898C11.2898 15.6298 12.7498 15.6298 13.5798 15.0898L19.5698 11.1598C20.2698 10.6998 20.6698 9.95979 20.6698 9.11979C20.6698 8.27979 20.2698 7.53979 19.5698 7.07979L13.5798 3.14979C13.1598 2.88979 12.5898 2.74979 12.0098 2.74979Z" />
<path d="M12.0002 22.7501C11.5602 22.7501 11.1102 22.6901 10.7502 22.5701L7.56018 21.5101C6.05018 21.0101 4.86018 19.3601 4.87018 17.7701L4.88018 13.0801C4.88018 12.6701 5.22018 12.3301 5.63018 12.3301C6.04018 12.3301 6.38018 12.6701 6.38018 13.0801L6.37018 17.7701C6.37018 18.7101 7.15018 19.7901 8.04018 20.0901L11.2302 21.1501C11.6302 21.2801 12.3702 21.2801 12.7702 21.1501L15.9602 20.0901C16.8502 19.7901 17.6302 18.7101 17.6302 17.7801V13.1401C17.6302 12.7301 17.9702 12.3901 18.3802 12.3901C18.7902 12.3901 19.1302 12.7301 19.1302 13.1401V17.7801C19.1302 19.3701 17.9502 21.0101 16.4402 21.5201L13.2502 22.5801C12.8902 22.6901 12.4402 22.7501 12.0002 22.7501Z" />
<path d="M21.3999 15.75C20.9899 15.75 20.6499 15.41 20.6499 15V9C20.6499 8.59 20.9899 8.25 21.3999 8.25C21.8099 8.25 22.1499 8.59 22.1499 9V15C22.1499 15.41 21.8099 15.75 21.3999 15.75Z" />
</svg>

<?xml version="1.0" encoding="UTF-8"?>
<svg width="24" height="24" viewBox="0 0 24 24" xmlns="http://www.w3.org/2000/svg">
 <path d="m12.01 17c-0.85 0-1.71-0.22-2.38-0.65l-6.02-3.93c-1.12-0.73-1.79-1.96-1.79-3.3 0-1.34 0.67-2.57 1.79-3.3l6.03-3.92c1.34-0.87 3.43-0.87 4.76 0.01l5.99 3.93c1.11 0.73 1.78 1.96 1.78 3.29 0 1.33-0.67 2.56-1.78 3.29l-5.99 3.93c-0.67 0.44-1.53 0.65-2.39 0.65zm0-14.25c-0.57 0-1.14 0.13-1.55 0.41l-6.02 3.92c-0.7 0.46-1.11 1.2-1.11 2.04s0.4 1.58 1.11 2.04l6.02 3.93c0.83 0.54 2.29 0.54 3.12 0l5.99-3.93c0.7-0.46 1.1-1.2 1.1-2.04s-0.4-1.58-1.1-2.04l-5.99-3.93c-0.42-0.26-0.99-0.4-1.57-0.4z"/>
 <path d="m12 22.75c-0.44 0-0.89-0.06-1.25-0.18l-3.19-1.06c-1.51-0.5-2.7-2.15-2.69-3.74l0.01-4.69c0-0.41 0.34-0.75 0.75-0.75s0.75 0.34 0.75 0.75l-0.01 4.69c0 0.94 0.78 2.02 1.67 2.32l3.19 1.06c0.4 0.13 1.14 0.13 1.54 0l3.19-1.06c0.89-0.3 1.67-1.38 1.67-2.31v-4.64c0-0.41 0.34-0.75 0.75-0.75s0.75 0.34 0.75 0.75v4.64c0 1.59-1.18 3.23-2.69 3.74l-3.19 1.06c-0.36 0.11-0.81 0.17-1.25 0.17z"/>
 <path d="m21.4 15.75c-0.41 0-0.75-0.34-0.75-0.75v-6c0-0.41 0.34-0.75 0.75-0.75s0.75 0.34 0.75 0.75v6c0 0.41-0.34 0.75-0.75 0.75z"/>
</svg>
